X:426
T: Shixuxie
N: C1461
O: China, Hubei
S: I, 459(2)]
R: Xiaodiao. Biaoda aiqing]
M: 2/4
L: 1/16
K: D
ege2d2e2 | d2edB4 | e4B2A4E2
E2E2BdBA | BdA2E4 | A8
A3ABcB2 | B3dA4 | BcB4cB | A8
e3fd2e2 | efB2z2ef | B2B4e2 | d8
e2e4feB2BA | B3ABdBdB2F2
B3AB2BA | Bde4A2 | BdBAE2A2 | BdB4AFE4
A3BE2A2 | BdE2z2BA | E2E4AB | G8
ege4geB2BA | B3ABdBAA2F2
AAAABdBAABAF | B2e4BA | A2BAE2A2 | BdB2z2AFE4
A3BE2A2 | BAE2z2BA | E2E4A2 | G8
ege4geB2BA | B3eBcBAA2A2
AAAABdBAABAF | B2e4BA | A2BAE2A2 | BdB2z2AFE4
A3BE2A2 | E2E2z2A2 | E2E4A2 | G8
ege4geB2BA | B2e4BABcA2
B3AA2BA | B2e4BA | B2BAE2A2 | BdB2z2AFE4
A3BE2A2 | ABE2z2A2 | E2E4A2 | G8
ege4geB2BA | B2e4BABcA2
B3ABeBA | B2e4BA | B2BAE2A2 | BdB2z2AFE4
A3BE2A2 | A2E2z2A2 | E2E4A2 | G8
e2e4geB2BA | B2e4A2B2BA
B3eB2BAB2BA | B2e4Be | B2BAE2A2 | BdB2z2AFE4
A3BE2A2 | A2E2z2A2 | E2E4A2 | G8
ege4geB2BA | B2e4A2B2BA
AAAABdBABcA2 | B2e4A2 | A2BAE2A2 | BdB2z2AFE4
A3BE2A2 | E2E2z2BA | E2E4A2 | G8
B2e4geB2BA | B2e4A2B2BA
AAAABdBABcA2 | B2e4A2 | B2BAE2A2 | BdB2z2AFE4
B3AE2A2 | ABE2z2AB | E2E4A2 | G8
e2e4geB2BA | B2e4A2B2BA
B3ABcA2 | ABABBcBA | B2e4A2 | B2BAE2A2 | BdB2z2AF | E4
E2A2 | BdB2z2AF | E8

